X:283
T:Polska efter August Nyholm
T:(SvL Häls. 283)
R:Polska
B:Svenska Låtar Hälsingland
O:Delsbo, Hälsingland
S:August Nyholm
M:3/4
L:1/16
K:A
vecdB AGAc BABd|cBce dcdf f2e2|ecdB AGAc BABd|
cAdB A4 A,4:| |:e4 (ed)cd eaga|agae (dc)BA B4|B2c2 d4 f4|d2(fd) c2ec A4:|
ecdB AGAc BABd|cBce dcdf f2e2|ecdB AGAc BABd|cAdB A4 A,4||

